assets/logos/icons/app.svg

<svg height="24" viewBox="0 0 24 24" width="24" xmlns="http://www.w3.org/2000/svg"><path d="m19.9999999 1.99999995h-15.99999995c-1.1 0-2 .9-2 2v15.99999995c0 1.1000001.9 2.0000002 2 2h15.99999995c1.1000001.0000002 2.0000002-.8999999 2-2v-15.99999995c.0000002-1.1-.8999999-2-2-2zm-3.9999999 10.00000005c0 .7-.2 1.4-.6 2l-2-2 2-2.00000001c.4.60000001.6 1.30000001.6 2.00000001zm-8.00000002 0c0-.7.2-1.4.6-2.00000001l2.00000002 2.00000001-2.00000002 2c-.4-.6-.6-1.3-.6-2zm2.00000001-3.40000002c.60000001-.4 1.30000001-.6 2.00000001-.6s1.4.2 2 .6l-2 2.00000002zm2.00000001 4.80000002 2 2c-.6.4-1.3.6-2 .6s-1.4-.2-2.00000001-.6zm3.5-6.30000002c-1-.70000001-2.2-1.10000001-3.5-1.10000001s-2.50000001.4-3.50000002 1.10000001l-3.10000001-3.10000002h13.20000003zm-8.40000002 1.4c-.70000001 1.00000001-1.10000001 2.20000002-1.10000001 3.50000002s.4 2.5 1.10000001 3.5l-3.10000002 3.1v-13.20000003zm1.4 8.40000002c1.00000001.7 2.20000002 1.1 3.50000002 1.1s2.5-.4 3.5-1.1l3.1 3.1h-13.20000003zm8.40000002-1.4c.7-1 1.1-2.2 1.1-3.5s-.4-2.50000001-1.1-3.50000002l3.1-3.10000001v13.20000003z" fill="#492f5c" fill-rule="evenodd"/></svg>

<svg xmlns="http://www.w3.org/2000/svg" xmlns:xlink="http://www.w3.org/1999/xlink" width="24" height="24" viewBox="0 0 24 24">
  <defs>
    <path id="app-a" d="M19.9999999,1.99999995 L3.99999995,1.99999995 C2.89999995,1.99999995 1.99999995,2.89999995 1.99999995,3.99999995 L1.99999995,19.9999999 C1.99999995,21.1 2.89999995,22.0000001 3.99999995,21.9999999 L19.9999999,21.9999999 C21.1,22.0000001 22.0000001,21.1 21.9999999,19.9999999 L21.9999999,3.99999995 C22.0000001,2.89999995 21.1,1.99999995 19.9999999,1.99999995 Z M16,12 C16,12.7 15.8,13.4 15.4,14 L13.4,12 L15.4,9.99999999 C15.8,10.6 16,11.3 16,12 Z M7.99999998,12 C7.99999998,11.3 8.19999998,10.6 8.59999998,9.99999999 L10.6,12 L8.59999998,14 C8.19999998,13.4 7.99999998,12.7 7.99999998,12 Z M9.99999999,8.59999998 C10.6,8.19999998 11.3,7.99999998 12,7.99999998 C12.7,7.99999998 13.4,8.19999998 14,8.59999998 L12,10.6 L9.99999999,8.59999998 Z M12,13.4 L14,15.4 C13.4,15.8 12.7,16 12,16 C11.3,16 10.6,15.8 9.99999999,15.4 L12,13.4 Z M15.5,7.09999998 C14.5,6.39999997 13.3,5.99999997 12,5.99999997 C10.7,5.99999997 9.49999999,6.39999997 8.49999998,7.09999998 L5.39999997,3.99999996 L18.6,3.99999996 L15.5,7.09999998 Z M7.09999998,8.49999998 C6.39999997,9.49999999 5.99999997,10.7 5.99999997,12 C5.99999997,13.3 6.39999997,14.5 7.09999998,15.5 L3.99999996,18.6 L3.99999996,5.39999997 L7.09999998,8.49999998 Z M8.49999998,16.9 C9.49999999,17.6 10.7,18 12,18 C13.3,18 14.5,17.6 15.5,16.9 L18.6,20 L5.39999997,20 L8.49999998,16.9 Z M16.9,15.5 C17.6,14.5 18,13.3 18,12 C18,10.7 17.6,9.49999999 16.9,8.49999998 L20,5.39999997 L20,18.6 L16.9,15.5 Z"/>
  </defs>
  <use fill="#492F5C" fill-rule="evenodd" xlink:href="#app-a"/>
</svg>
